img/icons/pharmacovigilance-icon1.svg

<svg fill="none" height="17" viewBox="0 0 14 17" width="14" xmlns="http://www.w3.org/2000/svg"><g clip-rule="evenodd" fill="#1f1d1d" fill-rule="evenodd"><path d="m6.66667 0c-2.07107 0-3.75 1.67893-3.75 3.75s1.67893 3.75 3.75 3.75c2.07106 0 3.75003-1.67893 3.75003-3.75s-1.67897-3.75-3.75003-3.75zm-2.08334 3.75c0-1.15059.93274-2.08333 2.08334-2.08333 1.15059 0 2.08333.93274 2.08333 2.08333s-.93274 2.08333-2.08333 2.08333c-1.1506 0-2.08334-.93274-2.08334-2.08333z"/><path d="m6.66667 8.75c-3.6819 0-6.66667 2.9848-6.66667 6.6667v1.25h13.3333v-1.25c0-3.6819-2.9847-6.6667-6.66663-6.6667zm0 1.6667c2.62111 0 4.77113 2.0168 4.98293 4.5833h-9.96582c.21173-2.5665 2.36178-4.5833 4.98289-4.5833z"/></g></svg>

<svg width="14" height="17" viewBox="0 0 14 17" fill="none" xmlns="http://www.w3.org/2000/svg">
<path fill-rule="evenodd" clip-rule="evenodd" d="M6.66667 0C4.5956 0 2.91667 1.67893 2.91667 3.75C2.91667 5.82107 4.5956 7.5 6.66667 7.5C8.73773 7.5 10.4167 5.82107 10.4167 3.75C10.4167 1.67893 8.73773 0 6.66667 0ZM4.58333 3.75C4.58333 2.59941 5.51607 1.66667 6.66667 1.66667C7.81726 1.66667 8.75 2.59941 8.75 3.75C8.75 4.90059 7.81726 5.83333 6.66667 5.83333C5.51607 5.83333 4.58333 4.90059 4.58333 3.75Z" fill="#1F1D1D"/>
<path fill-rule="evenodd" clip-rule="evenodd" d="M6.66667 8.75C2.98477 8.75 0 11.7348 0 15.4167V16.6667H13.3333V15.4167C13.3333 11.7348 10.3486 8.75 6.66667 8.75ZM6.66667 10.4167C9.28778 10.4167 11.4378 12.4335 11.6496 15H1.68378C1.89551 12.4335 4.04556 10.4167 6.66667 10.4167Z" fill="#1F1D1D"/>
</svg>
